X:1
T:How I Love You, LORD, My God
T:Tune: Joseph Parry, 1879 Text under copyright; for copyrighted material see Psalter Hymnal 18 
T:77 77 D ABERYSTWYTH www.hymnary.org//text/how_i_love_you_lord_my_god
T:This music is in the public domain. You may freely use this score for personal and congregational worship. If you reproduce the score, please credit Hymnary.org as the source. 
T:How I Love You, LORD, My God
T:This music is in the public domain. You may freely use this score for personal and congregational worship. If you reproduce the score, please credit Hymnary.org as the source. 
Z:This music is in the public domain. You may freely use this score for personal and congregational worship. If you reproduce the score, please credit Hymnary.org as the source.
%%score ( 1 2 ) ( 3 4 )
L:1/8
M:4/4
K:F
V:1 treble nm="SOPRANO ALTO" snm="S. A."
V:2 treble 
V:3 bass nm="TENOR BASS" snm="T. B."
V:4 bass 
V:1
 D2 DE FG A2 | F2 E2 D4 | F2 E2 D2 ^C2 | DE F2 E4 | D2 DE FG A2 | F2 E2 D4 | E2 FG A2 G2 | %7
 F2 E2 D4 | D2 C2 D2 E2 | F2 AG F4 | F2 E2 F2 G2 | A2 c=B A4 | d2 d2 |1 c2 A2 | F2 G2 A4 | %15
 D2 DE FG A2 | F2 E2 D4 |] %17
V:2
 D2 D^C DE F2 | D2 ^C2 A,4 | D2 ^C2 D2 A,2 | A,2 D2 ^C4 | A,2 A,^C DE F2 | D2 ^C2 A,4 | %6
 ^C2 DE F2 E2 | D2 ^C2 A,4 | B,2 A,2 B,2 B,2 | C2 E2 C4 | D2 ^C2 D2 E=C | C2 ED C4 | D2 FE |1 %13
 F2 C2 | D2 D2 E4 | D2 D^C DE F2 | D2 ^C2 A,4 |] %17
V:3
 F,2 A,2 A,2 A,2 | A,2 A,G, F,4 | A,2 A,2 A,2 A,2 | A,2 A,2 A,4 | F,G, A,2 A,2 A,2 | A,2 E,G, F,4 | %6
 A,2 A,C C2 B,2 | A,2 A,G, F,4 | F,2 F,2 F,2 G,2 | A,2 C_B, A,4 | A,2 A,2 A,2 CE, | %11
 F, A,2 ^G, A,4 | F,2 B,2 |1 C2 F,2 | A,2 D2 ^C4 | A,B,A,G, A,2 A,2 | A,2 E,/F,/G, F,4 |] %17
V:4
 D,2 F,,A,, D,2 F,,G,, | A,,2 A,,2 D,4 | D,2 E,2 F,2 G,2 | F,E, D,2 A,,4 | D,E, F,E, D,2 F,,G,, | %5
 A,,2 A,,2 D,4 | A,,2 D,C, F,2 G,2 | A,2 A,,2 D,4 | B,,2 F,,2 B,,A,, G,,2 | F,,2 C,2 F,,4 | %10
 D,2 A,,2 D,2 C,2 | F,2 E,2 A,,4 | B,,2 B,2 |1 A,2 F,2 | D,2 B,,2 A,,4 | F,G, F,E, D,2 F,,G,, | %16
 A,,2 A,,2 D,4 |] %17

